Origami/16x16/apps/openage.svg

<svg width="16" height="16" version="1" xmlns="http://www.w3.org/2000/svg">
 <path d="m8 0c-4.432 0-8 3.568-8 8s3.568 8 8 8 8-3.568 8-8-3.568-8-8-8z" style="fill:#4f4f4f"/>
 <path d="m4 3v4.6153846c0 1.0240769 0.55204 1.8595 1.27032 2.4556924l-1.27032 1.680423c1.16344 0.809385 2.5636 1.248462 4 1.2485s2.83656-0.439115 4-1.2485l-1.27032-1.680423c0.71828-0.5961539 1.27032-1.4316155 1.27032-2.4556924v-4.6153846h-2v1.8464615s0-0.8464615-1-0.8464615v-1h-2v1c-1 0-1 0.8464615-1 0.8464615v-1.8464615zm4 2.9925384c1.07828 0 1.31428 0.1923077 2 0.5769231v1.4305385c0 0.9754615-1.2 1.615385-2 2-0.8-0.384615-2-1.0245385-2-2v-1.4305385c0.68572-0.3846154 0.92172-0.5769231 2-0.5769231z" style="fill:#ffffff"/>
</svg>

<svg xmlns="http://www.w3.org/2000/svg" width="16" height="16" version="1">
 <path style="fill:#4f4f4f" d="M 8,0 C 3.568,0 0,3.568 0,8 c 0,4.432 3.568,8 8,8 4.432,0 8,-3.568 8,-8 C 16,3.568 12.432,0 8,0 Z"/>
 <path style="fill:#ffffff" d="m 4,3 0,4.6153846 c 0,1.0240769 0.55204,1.8595 1.27032,2.4556924 L 4,11.7515 c 1.16344,0.809385 2.5636,1.248462 4,1.2485 1.4364,3.8e-5 2.83656,-0.439115 4,-1.2485 L 10.72968,10.071077 C 11.44796,9.4749231 12,8.6394615 12,7.6153846 L 12,3 10,3 10,4.8464615 C 10,4.8464615 10,4 9,4 L 9,3 7,3 7,4 C 6,4 6,4.8464615 6,4.8464615 L 6,3 Z m 4,2.9925384 c 1.07828,0 1.31428,0.1923077 2,0.5769231 L 10,8 C 10,8.9754615 8.8,9.615385 8,10 7.2,9.615385 6,8.9754615 6,8 L 6,6.5694615 C 6.68572,6.1848461 6.92172,5.9925384 8,5.9925384 Z"/>
</svg>
